public/img/koot.svg

<svg height="150" preserveAspectRatio="xMidYMid meet" viewBox="0 0 224.87999 112.499997" width="300" xmlns="http://www.w3.org/2000/svg" zoomAndPan="magnify"><g fill="#02273e"><g><path d="m23-19.796875-4.75 4.734375v15.0625h-13.1875v-70.078125h13.1875v38.828125l2.546875-3.28125 12.640625-14.828125h15.84375l-17.84375 20.578125 19.390625 28.78125h-15.15625zm0 0" transform="translate(19.02319 87.359391)"/><path d="m3.015625-25.140625c0-4.894531.941406-9.257813 2.828125-13.09375 1.882812-3.832031 4.597656-6.796875 8.140625-8.890625 3.539063-2.101562 7.65625-3.15625 12.34375-3.15625 6.65625 0 12.085937 2.042969 16.296875 6.125 4.21875 4.074219 6.570312 9.605469 7.0625 16.59375l.09375 3.375c0 7.585938-2.117188 13.664062-6.34375 18.234375-4.230469 4.574219-9.90625 6.859375-17.03125 6.859375-7.117188 0-12.792969-2.28125-17.03125-6.84375-4.242188-4.5625-6.359375-10.765625-6.359375-18.609375zm13.1875.953125c0 4.6875.878906 8.273438 2.640625 10.75 1.757812 2.480469 4.285156 3.71875 7.578125 3.71875 3.1875 0 5.675781-1.222656 7.46875-3.671875 1.800781-2.445313 2.703125-6.363281 2.703125-11.75 0-4.59375-.902344-8.148437-2.703125-10.671875-1.792969-2.519531-4.3125-3.78125-7.5625-3.78125-3.230469 0-5.726563 1.257812-7.484375 3.765625-1.761719 2.5-2.640625 6.382813-2.640625 11.640625zm0 0" transform="translate(68.931695 87.359391)"/></g><g><path d="m3.015625-25.140625c0-4.894531.941406-9.257813 2.828125-13.09375 1.882812-3.832031 4.597656-6.796875 8.140625-8.890625 3.539063-2.101562 7.65625-3.15625 12.34375-3.15625 6.65625 0 12.085937 2.042969 16.296875 6.125 4.21875 4.074219 6.570312 9.605469 7.0625 16.59375l.09375 3.375c0 7.585938-2.117188 13.664062-6.34375 18.234375-4.230469 4.574219-9.90625 6.859375-17.03125 6.859375-7.117188 0-12.792969-2.28125-17.03125-6.84375-4.242188-4.5625-6.359375-10.765625-6.359375-18.609375zm13.1875.953125c0 4.6875.878906 8.273438 2.640625 10.75 1.757812 2.480469 4.285156 3.71875 7.578125 3.71875 3.1875 0 5.675781-1.222656 7.46875-3.671875 1.800781-2.445313 2.703125-6.363281 2.703125-11.75 0-4.59375-.902344-8.148437-2.703125-10.671875-1.792969-2.519531-4.3125-3.78125-7.5625-3.78125-3.230469 0-5.726563 1.257812-7.484375 3.765625-1.761719 2.5-2.640625 6.382813-2.640625 11.640625zm0 0" transform="translate(105.90515 87.359391)"/><path d="m20.84375-61.5v12.140625h8.453125v9.671875h-8.453125v24.625c0 1.835938.347656 3.148438 1.046875 3.9375.707031.78125 2.050781 1.171875 4.03125 1.171875 1.457031 0 2.75-.101563 3.875-.3125v9.984375c-2.585937.789062-5.246094 1.1875-7.984375 1.1875-9.25 0-13.964844-4.664062-14.140625-14v-26.59375h-7.21875v-9.671875h7.21875v-12.140625zm0 0" transform="translate(158.733348 87.359391)"/></g></g></svg>

<svg xmlns="http://www.w3.org/2000/svg" xmlns:xlink="http://www.w3.org/1999/xlink" width="300" zoomAndPan="magnify" viewBox="0 0 224.87999 112.499997" height="150" preserveAspectRatio="xMidYMid meet" version="1.0"><defs><g/></defs><g fill="#02273e" fill-opacity="1"><g transform="translate(19.02319, 87.359391)"><g><path d="M 23 -19.796875 L 18.25 -15.0625 L 18.25 0 L 5.0625 0 L 5.0625 -70.078125 L 18.25 -70.078125 L 18.25 -31.25 L 20.796875 -34.53125 L 33.4375 -49.359375 L 49.28125 -49.359375 L 31.4375 -28.78125 L 50.828125 0 L 35.671875 0 Z M 23 -19.796875 "/></g></g><g transform="translate(68.931695, 87.359391)"><g><path d="M 3.015625 -25.140625 C 3.015625 -30.035156 3.957031 -34.398438 5.84375 -38.234375 C 7.726562 -42.066406 10.441406 -45.03125 13.984375 -47.125 C 17.523438 -49.226562 21.640625 -50.28125 26.328125 -50.28125 C 32.984375 -50.28125 38.414062 -48.238281 42.625 -44.15625 C 46.84375 -40.082031 49.195312 -34.550781 49.6875 -27.5625 L 49.78125 -24.1875 C 49.78125 -16.601562 47.664062 -10.523438 43.4375 -5.953125 C 39.207031 -1.378906 33.53125 0.90625 26.40625 0.90625 C 19.289062 0.90625 13.613281 -1.375 9.375 -5.9375 C 5.132812 -10.5 3.015625 -16.703125 3.015625 -24.546875 Z M 16.203125 -24.1875 C 16.203125 -19.5 17.082031 -15.914062 18.84375 -13.4375 C 20.601562 -10.957031 23.128906 -9.71875 26.421875 -9.71875 C 29.609375 -9.71875 32.097656 -10.941406 33.890625 -13.390625 C 35.691406 -15.835938 36.59375 -19.753906 36.59375 -25.140625 C 36.59375 -29.734375 35.691406 -33.289062 33.890625 -35.8125 C 32.097656 -38.332031 29.578125 -39.59375 26.328125 -39.59375 C 23.097656 -39.59375 20.601562 -38.335938 18.84375 -35.828125 C 17.082031 -33.328125 16.203125 -29.445312 16.203125 -24.1875 Z M 16.203125 -24.1875 "/></g></g></g><g fill="#02273e" fill-opacity="1"><g transform="translate(105.90515, 87.359391)"><g><path d="M 3.015625 -25.140625 C 3.015625 -30.035156 3.957031 -34.398438 5.84375 -38.234375 C 7.726562 -42.066406 10.441406 -45.03125 13.984375 -47.125 C 17.523438 -49.226562 21.640625 -50.28125 26.328125 -50.28125 C 32.984375 -50.28125 38.414062 -48.238281 42.625 -44.15625 C 46.84375 -40.082031 49.195312 -34.550781 49.6875 -27.5625 L 49.78125 -24.1875 C 49.78125 -16.601562 47.664062 -10.523438 43.4375 -5.953125 C 39.207031 -1.378906 33.53125 0.90625 26.40625 0.90625 C 19.289062 0.90625 13.613281 -1.375 9.375 -5.9375 C 5.132812 -10.5 3.015625 -16.703125 3.015625 -24.546875 Z M 16.203125 -24.1875 C 16.203125 -19.5 17.082031 -15.914062 18.84375 -13.4375 C 20.601562 -10.957031 23.128906 -9.71875 26.421875 -9.71875 C 29.609375 -9.71875 32.097656 -10.941406 33.890625 -13.390625 C 35.691406 -15.835938 36.59375 -19.753906 36.59375 -25.140625 C 36.59375 -29.734375 35.691406 -33.289062 33.890625 -35.8125 C 32.097656 -38.332031 29.578125 -39.59375 26.328125 -39.59375 C 23.097656 -39.59375 20.601562 -38.335938 18.84375 -35.828125 C 17.082031 -33.328125 16.203125 -29.445312 16.203125 -24.1875 Z M 16.203125 -24.1875 "/></g></g><g transform="translate(158.733348, 87.359391)"><g><path d="M 20.84375 -61.5 L 20.84375 -49.359375 L 29.296875 -49.359375 L 29.296875 -39.6875 L 20.84375 -39.6875 L 20.84375 -15.0625 C 20.84375 -13.226562 21.191406 -11.914062 21.890625 -11.125 C 22.597656 -10.34375 23.941406 -9.953125 25.921875 -9.953125 C 27.378906 -9.953125 28.671875 -10.054688 29.796875 -10.265625 L 29.796875 -0.28125 C 27.210938 0.507812 24.550781 0.90625 21.8125 0.90625 C 12.5625 0.90625 7.847656 -3.757812 7.671875 -13.09375 L 7.671875 -39.6875 L 0.453125 -39.6875 L 0.453125 -49.359375 L 7.671875 -49.359375 L 7.671875 -61.5 Z M 20.84375 -61.5 "/></g></g></g></svg>
